X:557
T:Reel 557
M:4/4
K:Gmaj
L:1/8
 (3def |g>G (3BGG B>G (3GGG |e>G (3GGG B>G (3Bfg |e>A (3AAA e>A (3cBA |e>a (3agf g>e (3ABc ||B>B (3cBA B>G (3BAG | (3cBA B>G B2|:|c>A (3BcB B>d (3dfg |d>c (3BcB d2B>d|c>A (3AGA c>A (3ABc |e>f (3fef g>d (3def |g>G (3BcB d>G (3BAG |A>F (3AFA d>A (3AAA |e>F (3FFA c>A (3AGA |G>F (3FGA F2|
